src/pos-icons/book-minus-multiple-outline.svg

<svg height="24" viewBox="0 0 24 24" width="24" xmlns="http://www.w3.org/2000/svg"><path d="m5 20v-14h-2v14a2 2 0 0 0 2 2h8v-2m6-18h-10a2 2 0 0 0 -2 2v12a2 2 0 0 0 2 2h4v-2h-4v-12h2v6l2.5-2.25 2.5 2.25v-6h3v12h2v-12a2 2 0 0 0 -2-2m4 18h-8v-2h8z"/></svg>

<?xml version="1.0" encoding="UTF-8"?><!DOCTYPE svg PUBLIC "-//W3C//DTD SVG 1.1//EN" "http://www.w3.org/Graphics/SVG/1.1/DTD/svg11.dtd"><svg xmlns="http://www.w3.org/2000/svg" xmlns:xlink="http://www.w3.org/1999/xlink" version="1.1" id="mdi-book-minus-multiple-outline" width="24" height="24" viewBox="0 0 24 24"><path d="M5 20V6H3V20A2 2 0 0 0 5 22H13V20M19 2H9A2 2 0 0 0 7 4V16A2 2 0 0 0 9 18H13V16H9V4H11V10L13.5 7.75L16 10V4H19V16H21V4A2 2 0 0 0 19 2M23 20H15V18H23Z" /></svg>
